src/scalable/mimetypes/application-mbox.svg

<?xml version="1.0" encoding="UTF-8" standalone="no"?>
<svg
   xmlns:dc="http://purl.org/dc/elements/1.1/"
   xmlns:cc="http://creativecommons.org/ns#"
   xmlns:rdf="http://www.w3.org/1999/02/22-rdf-syntax-ns#"
   xmlns:svg="http://www.w3.org/2000/svg"
   xmlns="http://www.w3.org/2000/svg"
   xmlns:xlink="http://www.w3.org/1999/xlink"
   xmlns:sodipodi="http://sodipodi.sourceforge.net/DTD/sodipodi-0.dtd"
   xmlns:inkscape="http://www.inkscape.org/namespaces/inkscape"
   width="48px"
   height="48px"
   viewBox="0 0 48 48"
   version="1.1"
   id="svg18"
   sodipodi:docname="application-mbox.svg"
   inkscape:version="0.92.2 2405546, 2018-03-11">
  <metadata
     id="metadata22">
    <rdf:RDF>
      <cc:Work
         rdf:about="">
        <dc:format>image/svg+xml</dc:format>
        <dc:type
           rdf:resource="http://purl.org/dc/dcmitype/StillImage" />
      </cc:Work>
    </rdf:RDF>
  </metadata>
  <sodipodi:namedview
     pagecolor="#ffffff"
     bordercolor="#666666"
     borderopacity="1"
     objecttolerance="10"
     gridtolerance="10"
     guidetolerance="10"
     inkscape:pageopacity="0"
     inkscape:pageshadow="2"
     inkscape:window-width="640"
     inkscape:window-height="480"
     id="namedview20"
     showgrid="false"
     inkscape:zoom="3.4766083"
     inkscape:cx="15.366667"
     inkscape:cy="20.623714"
     inkscape:window-x="827"
     inkscape:window-y="415"
     inkscape:window-maximized="0"
     inkscape:current-layer="svg18" />
  <!-- Generator: Sketch 41.2 (35397) - http://www.bohemiancoding.com/sketch -->
  <title
     id="title2">application-mbox</title>
  <desc
     id="desc4">Created with Sketch.</desc>
  <g
     id="g1133">
    <rect
       rx="2"
       ry="1.9047618"
       y="4"
       x="6"
       height="40"
       width="36"
       id="rect1129"
       style="opacity:1;fill:#72cb78;fill-opacity:1;stroke:none;stroke-width:0.92582005;stroke-linecap:round;stroke-linejoin:round;stroke-miterlimit:4;stroke-dasharray:none;stroke-opacity:0.05882353;paint-order:markers stroke fill" />
    <path
       inkscape:connector-curvature="0"
       id="path1131"
       d="M 42,17.242188 A 40,40 0 0 1 23.494141,44 H 40 c 1.108,0 2,-0.849059 2,-1.904297 z"
       style="opacity:0.15;fill:url(#linearGradient1135);fill-opacity:1;stroke:none;stroke-width:0.92582005;stroke-linecap:round;stroke-linejoin:round;stroke-miterlimit:4;stroke-dasharray:none;stroke-opacity:0.05882353;paint-order:markers stroke fill" />
  </g>
  <defs
     id="defs11">
    <linearGradient
       x1="90.7002767%"
       y1="6.56534831%"
       x2="35.3271484%"
       y2="64.1438802%"
       id="linearGradient-1">
      <stop
         stop-color="#93DEF2"
         offset="0%"
         id="stop6" />
      <stop
         stop-color="#5ABADF"
         offset="100%"
         id="stop8" />
    </linearGradient>
    <linearGradient
       inkscape:collect="always"
       xlink:href="#linearGradient875"
       id="linearGradient1135"
       gradientUnits="userSpaceOnUse"
       x1="32.74707"
       y1="44"
       x2="32.74707"
       y2="17.242188" />
    <linearGradient
       inkscape:collect="always"
       id="linearGradient875">
      <stop
         style="stop-color:#000000;stop-opacity:1;"
         offset="0"
         id="stop871" />
      <stop
         style="stop-color:#000000;stop-opacity:0;"
         offset="1"
         id="stop873" />
    </linearGradient>
  </defs>
  <g
     id="Page-1"
     stroke="none"
     stroke-width="1"
     fill="none"
     fill-rule="evenodd">
    <g
       id="application-mbox">
      <path
         d="M24,25 L15.8305664,19.5537109 C15.3718572,19.2479048 15.4449463,19 15.9933977,19 L32.0066023,19 C32.5552407,19 32.6247395,19.2501737 32.1694336,19.5537109 L24,25 Z M15,20 L24,26 L33,20 L33,30.0044225 C33,30.5542648 32.5550537,31 32.0066023,31 L15.9933977,31 C15.4447593,31 15,30.555163 15,30.0044225 L15,20 Z"
         id="Combined-Shape"
         fill="#FFFFFF" />
    </g>
  </g>
</svg>

<svg xmlns="http://www.w3.org/2000/svg" xmlns:xlink="http://www.w3.org/1999/xlink" width="48" height="48"><g paint-order="markers stroke fill"><rect rx="2" ry="1.905" y="4" x="6" height="40" width="36" fill="#72cb78"/><path d="M42 17.242A40 40 0 0 1 23.494 44H40c1.108 0 2-.85 2-1.904z" opacity=".15" fill="url(#a)"/></g><defs><linearGradient xlink:href="#b" id="a" gradientUnits="userSpaceOnUse" x1="32.747" y1="44" x2="32.747" y2="17.242"/><linearGradient id="b"><stop offset="0"/><stop offset="1" stop-opacity="0"/></linearGradient></defs><path d="M24 25l-8.17-5.446c-.458-.306-.385-.554.163-.554h16.014c.548 0 .618.25.162.554L24 25zm-9-5l9 6 9-6v10.004c0 .55-.445.996-.993.996H15.993a.994.994 0 0 1-.993-.996V20z" fill="#FFF" fill-rule="evenodd"/></svg>
